icons/bookmark-slash-24.svg

<svg width="24" height="24" viewBox="0 0 24 24" fill="none" xmlns="http://www.w3.org/2000/svg">
<path fill-rule="evenodd" clip-rule="evenodd" d="M1.56488 2.01754C1.22939 1.7746 0.760477 1.84962 0.517537 2.18511C0.274596 2.5206 0.349622 2.98951 0.685111 3.23245L5 6.35702V21.2586C5 21.547 5.16539 21.8099 5.42539 21.9347C5.6854 22.0596 5.99395 22.0242 6.21901 21.8439L12 17.2111L17.781 21.8439C18.0061 22.0242 18.3146 22.0596 18.5746 21.9347C18.8346 21.8099 19 21.547 19 21.2586V16.495L22.4351 18.9824C22.7706 19.2254 23.2395 19.1504 23.4824 18.8149C23.7254 18.4794 23.6504 18.0105 23.3149 17.7675L1.56488 2.01754ZM17.5 15.4087L6.5 7.44323V19.6965L11.531 15.6647C11.8051 15.4451 12.1949 15.4451 12.469 15.6647L17.5 19.6965V15.4087Z" fill="#24292E"/>
<path d="M7.25 2C6.83579 2 6.5 2.33579 6.5 2.75C6.5 3.16421 6.83579 3.5 7.25 3.5H17.25C17.3881 3.5 17.5 3.61193 17.5 3.75V10.25C17.5 10.6642 17.8358 11 18.25 11C18.6642 11 19 10.6642 19 10.25V3.75C19 2.7835 18.2165 2 17.25 2H7.25Z" fill="#24292E"/>
</svg>

<svg xmlns="http://www.w3.org/2000/svg" width="24" height="24" viewBox="0 0 24 24"><path fill-rule="evenodd" d="M1.565 2.018a.75.75 0 00-.88 1.214L5 6.357v14.902a.75.75 0 001.219.585L12 17.21l5.781 4.633A.75.75 0 0019 21.259v-4.764l3.435 2.487a.75.75 0 10.88-1.215L1.565 2.017zM17.5 15.408l-11-7.965v12.254l5.031-4.032a.75.75 0 01.938 0l5.031 4.032v-4.288z"/><path d="M7.25 2a.75.75 0 000 1.5h10a.25.25 0 01.25.25v6.5a.75.75 0 001.5 0v-6.5A1.75 1.75 0 0017.25 2h-10z"/></svg>
